X: 21811
T: AULD LANGSYNE
O: Scotch air.
Q: "Moderate."
%R: song, march
B: W. Hamilton "Universal Tune-Book" Vol. 2 Glasgow 1846 p.181 #1
S: http://s3-eu-west-1.amazonaws.com/itma.dl.printmaterial/book_pdfs/hamiltonvol2web.pdf
Z: 2016 John Chambers <jc:trillian.mit.edu>
M: 2/4
L: 1/16
K: F
% - - - - - - - - - - - - - - - - - - - - - - - - -
C2 |\
F3FF2A2 | G3FG2A2 | F2F2A2c2 | d4 defd |\
c2A2A2F2 | G3FG2A2 | F2D2D2C2 | F6 :|\
d2 |\
cA3A3F | {A}G3FG2A2 | c2A2A2c2 | d6 f2 |
c2A2A2F2 | G3FG2A2 | F2D2D3C | F6 d2 |\
c2A2 BAGF | {A}G2F2G2A2 | c2A2A2c2 | d4 defd |\
c2Ac BAGF | G3F GBAG | F2D2D3C | F4 F2 |]
% - - - - - - - - - - - - - - - - - - - - - - - - -

%%sep 1 1 500
%%sep 1 1 500

